build/assets/images/proyectos/logos/fichas/logo-laboral-kutxa.svg

<svg width="200" height="71" viewBox="0 0 200 71" fill="none" xmlns="http://www.w3.org/2000/svg">
<g clip-path="url(#clip0)">
<path d="M142.928 49.5957V49.7621H164.759L164.892 49.6623L164.859 49.629L164.759 49.5957H142.928V49.5957ZM193.81 29.4293L194.043 29.2629H158.17L158.037 29.3628L158.07 29.396L158.17 29.4293H193.81V29.4293Z" fill="white"/>
<path d="M199.734 0.211426L158.203 29.263H158.17H142.928V39.9452V49.7622V65.0367L164.759 49.7622H199.734V29.263H194.077L199.734 25.3029V0.211426ZM161.597 40.5442C161.431 41.4094 161.631 44.1382 162.662 44.3379C163.028 44.4044 163.328 44.3379 163.627 44.1715L164.526 43.6723L164.692 47.2996H158.935C159.135 45.8021 159.235 44.5708 159.334 43.4727L159.534 40.5442C158.369 40.3778 157.105 39.9452 156.04 39.1132C155.108 38.3479 154.576 37.4161 154.509 36.2846C154.376 34.288 157.005 31.7921 160.399 31.7921H161.398C161.764 31.8254 162.13 31.8587 162.529 31.9585C162.296 32.4577 161.997 33.0567 161.93 34.0883C161.564 33.9885 161.265 33.9219 160.832 33.9219C158.369 33.9219 157.704 35.5858 157.704 36.2181C157.704 37.8487 159.301 38.4144 160.499 38.5143C161.364 38.6141 162.196 38.4144 162.928 37.9152C163.461 37.5492 163.594 37.4161 163.86 36.8171C164.493 37.1499 165.923 37.2497 166.955 36.8836C166.722 38.9469 163.927 40.4776 161.597 40.5442Z" fill="white"/>
<path d="M13.2447 46.3345H3.82705V29.263H0.0666504V47.233C0.0666504 47.9984 0.332873 48.664 0.832041 49.1632C1.33121 49.6291 1.99677 49.862 2.79544 49.862H13.2447V46.3345ZM35.2081 49.8953L28.0533 30.7605C27.654 29.6956 26.8221 29.1299 25.6906 29.1299C24.5592 29.1299 23.6939 29.7289 23.3279 30.7605L16.04 49.8953H20.0001L21.6307 45.669H29.5841L31.2147 49.8953H35.2081ZM28.3528 42.1415H22.862L25.6573 34.6207L28.3528 42.1415ZM54.5425 44.2713C54.5425 43.5059 54.4094 42.7738 54.1099 42.1083C53.8104 41.476 53.4111 40.877 52.8786 40.3112L51.9136 39.3129L52.6457 38.3146C52.9785 37.7821 53.2447 37.2497 53.4776 36.684C53.7106 36.0517 53.8104 35.3861 53.8104 34.654C53.8104 32.8903 53.2447 31.5259 52.1132 30.5941C51.0484 29.7289 49.6507 29.263 47.9202 29.263H41.6973C40.8986 29.263 40.233 29.4959 39.7672 29.9618C39.4011 30.2946 39.0018 30.8936 39.0018 31.8587V47.2663C39.0018 48.0317 39.3013 48.6973 39.8004 49.1964C40.2996 49.6623 40.9652 49.8953 41.7638 49.8953H48.0866C50.0167 49.8953 51.6141 49.3961 52.7455 48.3978C53.9435 47.3662 54.5425 46.0018 54.5425 44.2713ZM50.1498 34.6873C50.1498 35.0533 50.0833 35.3861 49.9502 35.7189C49.8171 36.085 49.6174 36.451 49.451 36.7172L48.6856 37.8154H42.6956V32.6906H47.9202C48.5192 32.6906 49.2846 32.7905 49.6507 33.1898C49.9835 33.5891 50.1498 34.055 50.1498 34.6873ZM42.6956 46.4011V41.243H48.7855L49.9169 42.441C50.2164 42.7405 50.4494 43.0733 50.6157 43.4061C50.7489 43.7056 50.8154 44.0051 50.8154 44.3711C50.8154 45.0367 50.6157 45.5026 50.2164 45.8354C49.7838 46.2014 49.085 46.4011 48.1532 46.4011H42.6956V46.4011ZM77.4044 39.6124C77.4044 37.9818 77.1715 36.5176 76.7389 35.2197C76.3063 33.9219 75.6407 32.8237 74.8088 31.9252C73.9768 31.0267 72.9452 30.3279 71.7805 29.862C70.6157 29.3961 69.3179 29.1632 67.9535 29.1632C66.5558 29.1632 65.258 29.3961 64.0933 29.862C62.8953 30.3279 61.8637 31.0267 60.9984 31.9252C60.1332 32.8237 59.4677 33.9552 59.0018 35.253C58.5359 36.5176 58.3362 38.0151 58.3362 39.6124C58.3362 41.243 58.5692 42.7073 59.0018 43.9718C59.4677 45.2697 60.0999 46.4011 60.9319 47.2663C61.7638 48.1648 62.7954 48.8637 63.9602 49.3296C65.1249 49.7954 66.3895 50.0284 67.8204 50.0284C69.2181 50.0284 70.4826 49.7954 71.6474 49.3628C72.8454 48.8969 73.877 48.2314 74.7422 47.2996C75.6074 46.4011 76.273 45.2697 76.7056 44.0051C77.2048 42.7738 77.4044 41.2763 77.4044 39.6124ZM63.7272 44.8703C63.2281 44.2713 62.8287 43.5725 62.5625 42.7073C62.263 41.8087 62.1299 40.7771 62.1299 39.6124C62.1299 37.3162 62.6623 35.5525 63.6607 34.3878C64.659 33.2231 66.0234 32.6573 67.8537 32.6573C68.7522 32.6573 69.5841 32.7904 70.283 33.0899C70.9818 33.3894 71.5808 33.7888 72.08 34.3878C72.5791 34.9868 72.9452 35.6856 73.2114 36.5508C73.5109 37.4161 73.644 38.481 73.644 39.6457C73.644 41.9751 73.1449 43.7389 72.1132 44.9369C71.1149 46.0683 69.7505 46.634 67.9535 46.634C67.055 46.634 66.2231 46.4677 65.4909 46.1682C64.7921 45.8687 64.2264 45.436 63.7272 44.8703ZM97.5708 49.8953L93.278 40.877L94.4427 39.4127C94.842 38.847 95.2414 38.2147 95.5409 37.5492C95.8736 36.8171 96.04 36.0517 96.04 35.2197C96.04 33.3229 95.4743 31.8254 94.3761 30.7938C93.3112 29.7954 91.8137 29.2963 89.9835 29.2963H83.9602C83.1282 29.2963 82.4959 29.5292 81.9968 29.9951C81.664 30.3279 81.2314 30.8936 81.2314 31.8919V49.9286H84.9585V42.2746H89.8503L93.4444 49.9286H97.5708V49.8953ZM84.9585 38.8137V32.7239H89.9502C90.4493 32.7239 90.8487 32.7904 91.1482 32.9236C91.4477 33.0234 91.6473 33.1898 91.8137 33.3562C91.9801 33.5558 92.1132 33.7888 92.2131 34.0883C92.3129 34.4211 92.3462 34.8204 92.3462 35.253C92.3462 35.6856 92.2464 36.0517 92.08 36.451C91.847 36.9169 91.5808 37.3162 91.2813 37.7488L90.4826 38.847H84.9585V38.8137ZM119.534 49.8953L112.379 30.7605C112.013 29.6956 111.148 29.1299 110.017 29.1299C108.852 29.1299 108.02 29.7289 107.654 30.7605L100.366 49.8953H104.326L105.957 45.669H113.944L115.574 49.8953H119.534ZM112.679 42.1415H107.155L109.95 34.6207L112.679 42.1415ZM126.123 46.3345V29.263H122.33V47.233C122.33 47.9984 122.596 48.664 123.095 49.1632C123.594 49.6291 124.26 49.862 125.092 49.862H135.541V46.3345H126.123ZM100.566 68.3645L99.4344 68.6307L98.6024 68.7638L97.9369 68.8304L97.4044 68.8637C96.8387 68.8637 96.3728 68.7971 95.9735 68.6307C95.6074 68.4976 95.3079 68.2979 95.0417 68.0317C94.8088 67.7655 94.6424 67.466 94.5758 67.0999C94.476 66.7339 94.4427 66.3345 94.4427 65.9352V58.5475H92.8454V66.1016C92.8454 66.7006 92.9452 67.233 93.0783 67.7322C93.2447 68.2647 93.4776 68.6973 93.8437 69.0633C94.2097 69.4294 94.6424 69.7289 95.1748 69.9618C95.7405 70.1615 96.4061 70.2946 97.1715 70.2946L98.5692 70.1948C99.1349 70.1615 99.9003 69.9951 100.865 69.7622C101.697 69.5625 102.097 69.0301 102.097 68.2314V58.5475H100.533V68.3645H100.566V68.3645ZM111.647 68.5309L110.316 68.7971L109.484 68.8637C108.785 68.8637 108.32 68.6973 108.053 68.2979C107.787 67.9319 107.654 67.3329 107.654 66.5342V59.9785H111.614V58.5475H107.654V55.5192L106.09 55.852V58.5475H104.226V59.9785H106.09V66.6673C106.09 69.1299 107.221 70.3612 109.451 70.3612C109.95 70.3612 110.782 70.2613 111.914 70.0284L111.647 68.5309ZM135.541 68.3645V62.3412C135.541 61.6424 135.441 61.0434 135.208 60.5442C134.975 60.045 134.676 59.6457 134.276 59.3462C133.91 59.0134 133.444 58.7805 132.945 58.6474C132.446 58.5142 131.88 58.4477 131.315 58.4477C131.315 58.4477 129.052 58.3811 126.356 59.08L126.689 60.5109C126.689 60.5109 129.185 59.8121 131.281 59.9119H131.315C132.147 59.9119 132.779 60.1116 133.278 60.4776C133.81 60.8437 134.043 61.5093 134.043 62.3745V63.7056H130.516C129.917 63.7056 129.318 63.7721 128.752 63.872C128.186 64.0051 127.721 64.2048 127.288 64.471C126.855 64.7372 126.523 65.1033 126.29 65.5359C126.023 65.9685 125.924 66.5342 125.924 67.1998C125.924 68.1981 126.256 68.9968 126.922 69.5625C127.587 70.1282 128.519 70.4277 129.751 70.4277C130.216 70.4277 130.749 70.3612 131.315 70.2613L132.978 69.8953L133.844 69.6623L134.077 69.6291V70.2946H135.607V68.3645H135.541V68.3645ZM134.01 68.2314L132.712 68.5309L131.148 68.8304C130.649 68.8969 130.25 68.9302 129.917 68.9302C129.118 68.9302 128.519 68.7638 128.087 68.4643C127.654 68.1648 127.454 67.6989 127.454 67.0667C127.454 66.3345 127.721 65.8021 128.253 65.5026C128.785 65.2031 129.518 65.0034 130.483 65.0034H134.043V68.2314H134.01ZM82.7289 55.5192L81.1981 55.852V70.2281H82.7289V64.238H84.8254L88.852 70.1948H90.7156L86.1898 63.4727L90.7489 58.5475H88.6856L84.8587 62.7073H82.7622V55.5192H82.7289V55.5192ZM123.76 70.1948L120.499 64.3379L123.694 58.5475H121.764L119.268 63.4727H118.536L116.04 58.5475H114.11L117.305 64.3379L114.043 70.1948H115.907L118.536 64.9702H119.268L121.897 70.1948H123.76Z" fill="white"/>
</g>
<defs>
<clipPath id="clip0">
<rect width="200" height="70.5491" fill="white" transform="translate(0 0.0117188)"/>
</clipPath>
</defs>
</svg>

<svg width="200" height="71" fill="none" xmlns="http://www.w3.org/2000/svg"><g clip-path="url(#clip0)" fill="#fff"><path d="M142.928 49.596v.166h21.831l.133-.1-.033-.033-.1-.033h-21.831zm50.882-20.167l.233-.166H158.17l-.133.1.033.033.1.033h35.64z"/><path d="M199.734.211l-41.531 29.052h-15.275v35.774l21.831-15.275h34.975V29.263h-5.657l5.657-3.96V.21zm-38.137 40.333c-.166.865.034 3.594 1.065 3.794.366.066.666 0 .965-.166l.899-.5.166 3.628h-5.757c.2-1.498.3-2.73.399-3.827l.2-2.929c-1.165-.166-2.429-.599-3.494-1.43-.932-.766-1.464-1.698-1.531-2.83-.133-1.996 2.496-4.492 5.89-4.492h.999c.366.033.732.067 1.131.166-.233.5-.532 1.099-.599 2.13-.366-.1-.665-.166-1.098-.166-2.463 0-3.128 1.664-3.128 2.296 0 1.63 1.597 2.196 2.795 2.296.865.1 1.697-.1 2.429-.599.533-.366.666-.499.932-1.098.633.333 2.063.433 3.095.067-.233 2.063-3.028 3.594-5.358 3.66zm-148.352 5.79H3.827V29.263H.067v17.97c0 .765.266 1.431.765 1.93.5.466 1.165.699 1.963.699h10.45v-3.528zm21.963 3.561L28.053 30.76c-.399-1.064-1.23-1.63-2.362-1.63-1.132 0-1.997.599-2.363 1.63L16.04 49.895H20l1.63-4.226h7.954l1.63 4.226h3.994zm-6.855-7.754h-5.491l2.795-7.52 2.696 7.52zm26.19 2.13c0-.765-.134-1.497-.433-2.163a6.922 6.922 0 00-1.231-1.797l-.965-.998.732-.998c.332-.533.599-1.065.832-1.631.233-.632.332-1.298.332-2.03 0-1.764-.565-3.128-1.697-4.06-1.065-.865-2.462-1.331-4.193-1.331h-6.223c-.798 0-1.464.233-1.93.699-.366.333-.765.932-.765 1.897v15.407c0 .766.3 1.431.798 1.93.5.466 1.165.7 1.964.7h6.323c1.93 0 3.527-.5 4.658-1.498 1.199-1.032 1.797-2.396 1.797-4.127zm-4.393-9.584c0 .366-.067.7-.2 1.032a5.577 5.577 0 01-.499.998l-.765 1.098h-5.99v-5.124h5.224c.6 0 1.365.1 1.73.499.334.4.5.865.5 1.497zm-7.454 11.714v-5.158h6.09l1.13 1.198c.3.3.533.632.7.965.133.3.2.6.2.965 0 .666-.2 1.132-.6 1.464-.432.366-1.131.566-2.063.566h-5.457zm34.708-6.789c0-1.63-.233-3.094-.665-4.392a8.99 8.99 0 00-1.93-3.295 8.317 8.317 0 00-3.028-2.063c-1.165-.466-2.463-.699-3.828-.699-1.397 0-2.695.233-3.86.699a8.571 8.571 0 00-3.095 2.063c-.865.899-1.53 2.03-1.996 3.328-.466 1.265-.666 2.762-.666 4.36 0 1.63.233 3.094.666 4.359.466 1.298 1.098 2.43 1.93 3.294a8.315 8.315 0 003.028 2.064c1.165.465 2.43.698 3.86.698 1.398 0 2.663-.233 3.827-.665 1.198-.466 2.23-1.132 3.095-2.063.865-.899 1.531-2.03 1.964-3.295.499-1.231.698-2.729.698-4.393zM63.727 44.87a6.126 6.126 0 01-1.164-2.163c-.3-.898-.433-1.93-.433-3.095 0-2.296.532-4.06 1.53-5.224.999-1.165 2.363-1.73 4.194-1.73.898 0 1.73.132 2.429.432.699.3 1.298.699 1.797 1.298.5.599.865 1.298 1.131 2.163.3.865.433 1.93.433 3.095 0 2.33-.5 4.093-1.53 5.29-1 1.132-2.364 1.698-4.16 1.698-.899 0-1.73-.166-2.463-.466a4.867 4.867 0 01-1.764-1.298zm33.844 5.025l-4.293-9.018 1.165-1.464c.399-.566.798-1.198 1.098-1.864a5.523 5.523 0 00.499-2.33c0-1.896-.566-3.394-1.664-4.425-1.065-.999-2.562-1.498-4.392-1.498H83.96c-.832 0-1.464.233-1.963.7-.333.332-.766.898-.766 1.896v18.037h3.728v-7.654h4.891l3.594 7.654h4.127v-.034zM84.959 38.814v-6.09h4.991c.5 0 .899.066 1.198.2.3.1.5.266.666.432.166.2.3.433.4.732.099.333.132.732.132 1.165 0 .433-.1.799-.266 1.198-.233.466-.5.865-.799 1.298l-.798 1.098h-5.525v-.033zm34.575 11.081l-7.155-19.135c-.366-1.064-1.231-1.63-2.362-1.63-1.165 0-1.997.599-2.363 1.63l-7.288 19.135h3.96l1.631-4.226h7.987l1.63 4.226h3.96zm-6.855-7.754h-5.524l2.795-7.52 2.729 7.52zm13.444 4.194V29.262h-3.793v17.97c0 .765.266 1.431.765 1.93.499.466 1.165.699 1.997.699h10.449v-3.528h-9.418zm-25.557 22.03l-1.132.266-.832.133-.665.066-.533.034c-.565 0-1.031-.067-1.43-.233a2.495 2.495 0 01-.932-.6 1.906 1.906 0 01-.466-.931 4.469 4.469 0 01-.133-1.165v-7.388h-1.598v7.555c0 .599.1 1.131.233 1.63.167.533.4.965.766 1.331a4.26 4.26 0 001.33.899c.566.2 1.232.333 1.997.333l1.398-.1c.566-.033 1.331-.2 2.296-.433.832-.2 1.232-.732 1.232-1.53v-9.684h-1.564v9.817h.033zm11.081.166l-1.331.266-.832.067c-.699 0-1.164-.167-1.431-.566-.266-.366-.399-.965-.399-1.764v-6.556h3.96v-1.43h-3.96v-3.029l-1.564.333v2.696h-1.864v1.43h1.864v6.69c0 2.462 1.131 3.693 3.361 3.693.499 0 1.331-.1 2.463-.333l-.267-1.497zm23.894-.166V62.34c0-.699-.1-1.298-.333-1.797-.233-.499-.532-.898-.932-1.198a3.2 3.2 0 00-1.331-.699 6.433 6.433 0 00-1.63-.2s-2.263-.066-4.959.633l.333 1.43s2.496-.698 4.592-.598h.034c.832 0 1.464.2 1.963.566.532.366.765 1.031.765 1.896v1.332h-3.527c-.599 0-1.198.066-1.764.166a4.833 4.833 0 00-1.464.599 2.782 2.782 0 00-.998 1.065c-.267.433-.366.998-.366 1.664 0 .998.332 1.797.998 2.362.665.566 1.597.866 2.829.866.465 0 .998-.067 1.564-.167l1.663-.366.866-.233.233-.033v.666h1.53v-1.93h-.066zm-1.531-.134l-1.298.3-1.564.3a9.62 9.62 0 01-1.231.1c-.799 0-1.398-.167-1.83-.467-.433-.3-.633-.765-.633-1.397 0-.732.267-1.265.799-1.564.532-.3 1.265-.5 2.23-.5h3.56v3.228h-.033zM82.729 55.52l-1.53.333v14.376h1.53v-5.99h2.096l4.027 5.957h1.864l-4.526-6.722 4.559-4.925h-2.063l-3.827 4.16h-2.097V55.52h-.033zm41.031 14.676l-3.261-5.857 3.195-5.79h-1.93l-2.496 4.925h-.732l-2.496-4.925h-1.93l3.195 5.79-3.262 5.857h1.864l2.629-5.225h.732l2.629 5.225h1.863z"/></g><defs><clipPath id="clip0"><path fill="#fff" transform="translate(0 .012)" d="M0 0h200v70.549H0z"/></clipPath></defs></svg>
